toolkits/global/packages/global-context/img/icons/chevron-right.svg

<svg height="24" viewBox="0 0 24 24" width="24" xmlns="http://www.w3.org/2000/svg"><path d="m13.0857342 11.7005237 2.4816273-2.48162726c.3928221-.39282216 1.0219731-.40056173 1.4030652-.01946965.3911301.39113012.3914806 1.02492691-.0001404 1.41654791l-4.176208 4.1762079c-.3912076.3912077-1.0250814.3916069-1.4167199-.0000316l-4.17639422-4.1763942c-.39122513-.3912251-.39767006-1.01908147-.01657797-1.40017355.39113012-.39113012 1.02337105-.3930364 1.41951349.00310603l2.4818345 2.48183442.9977058 1.0136754z" fill="#666" fill-rule="evenodd" transform="matrix(0 -1 1 0 .081146 24.085734)"/></svg>

<?xml version="1.0" encoding="UTF-8"?>
<svg width="24px" height="24px" viewBox="0 0 24 24" version="1.1" xmlns="http://www.w3.org/2000/svg" xmlns:xlink="http://www.w3.org/1999/xlink">
    <!-- Generator: Sketch 63.1 (92452) - https://sketch.com -->
    <title>icon-icon / chevron-right</title>
    <desc>Created with Sketch.</desc>
    <g id="icon-/-chevron-right" stroke="none" stroke-width="1" fill="none" fill-rule="evenodd">
        <path d="M13.0857342,11.7005237 L15.5673615,9.21889644 C15.9601836,8.82607428 16.5893346,8.81833471 16.9704267,9.19942679 C17.3615568,9.59055691 17.3619073,10.2243537 16.9702863,10.6159747 L12.7940783,14.7921826 C12.4028707,15.1833903 11.7689969,15.1837895 11.3773584,14.792151 L7.20096418,10.6157568 C6.80973905,10.2245317 6.80329412,9.59667533 7.18438621,9.21558325 C7.57551633,8.82445313 8.20775726,8.82254685 8.6038997,9.21868928 L11.0857342,11.7005237 L12.08344,12.7141991 L13.0857342,11.7005237 Z" id="chevron-right" fill="#666666" transform="translate(12.083440, 12.002294) rotate(-90.000000) translate(-12.083440, -12.002294) "></path>
    </g>
</svg>
